!!!ONB: MCCC : IWM0416_02 : Extracted Monophonic Melody
!!!COM: Mozart, Wolfgang Amadeus
!!!OPR: Piano Sonata No.16
!!!OMV: 2
!!!SCT: K.545
!!!ODT: 1788///
**kern
*thru
*staff1
*Ipiano
*>A
*clefG2
*k[f#]
*G:
*M3/4
*MM80
=1
2b
16dd
16cc
16b
16cc
=2
8.dd
16b
4g
4r
=3
4.gg
16aa
16gg
16ff#
16ee
16dd
16cc#
=4
8.dd
16b
4g
4r
=5
8.cc
16a
8f#
8a
8b
8cc
=6
8.dd
16b
4gg
4r
=7
16aa
16gg
16ff#
16gg
16ff#
16ee
16dd#
16ee
16dd
16cc
16b
16cc
=8
8.b
32cc
32b
8a
8dd
8cc#
8cc
=9
[4b
16b]
16g
16b
16dd
16cc
16a
16cc
16ee
=10
8.dd
16b
16g
16g
16a
16b
16cc
16dd
16ee
16ff#
=11
16gg
16ff#
16gg
16ff#
16aa
16gg
16ff#
16gg
16ff#
16ee
16dd
16cc#
=12
16dd
16b
16dd
16b
4g
4r
=13
16cc
16a
16cc
16a
16f#
16a
16g#
16a
16a#
16b
16cc
16cc#
=14
16dd
16b
16dd
16b
4gg
16r
16bb
16ff#
16gg
=15
16dd#
16ee
16cc
16a
8.g
16g
16b
16a
16g
16a
=16
4a
4g
4r
=17
*>A
*M3/4
2b
16dd
16cc
16b
16cc
=18
8.dd
16b
4g
4r
=19
4.gg
16aa
16gg
16ff#
16ee
16dd
16cc#
=20
8.dd
16b
4g
4r
=21
8.cc
16a
8f#
8a
8b
8cc
=22
8.dd
16b
4gg
4r
=23
16aa
16gg
16ff#
16gg
16ff#
16ee
16dd#
16ee
16dd
16cc
16b
16cc
=24
8.b
32cc
32b
8a
8dd
8cc#
8cc
=25
[4b
16b]
16g
16b
16dd
16cc
16a
16cc
16ee
=26
8.dd
16b
16g
16g
16a
16b
16cc
16dd
16ee
16ff#
=27
16gg
16ff#
16gg
16ff#
16aa
16gg
16ff#
16gg
16ff#
16ee
16dd
16cc#
=28
16dd
16b
16dd
16b
4g
4r
=29
16cc
16a
16cc
16a
16f#
16a
16g#
16a
16a#
16b
16cc
16cc#
=30
16dd
16b
16dd
16b
4gg
16r
16bb
16ff#
16gg
=31
16dd#
16ee
16cc
16a
8.g
16g
16b
16a
16g
16a
=32
4a
4g
4r
=33
*>B
[4dd
16dd]
16cc#
16ee
16dd
16gg
16ff#
16ee
16dd
=34
8.cc#
16dd
4ee
4r
=35
[4ee
16ee]
16dd#
16ff#
16ee
16aa
16gg
16ff#
16ee
=36
8.dd
16ee
4ff#
4r
=37
[4ff#
16ff#]
16ee
16gg
16ff#
16bb
16aa
16gg
16ff#
=38
[4ee
16ee]
16dd#
16ff#
16ee
16aa
16gg
16ff#
16ee
=39
16ee
16dd
[8dd
16dd]
16a
16dd
16ff#
16ff#
16ee
16dd
16ee
=40
4ee
16dd
16dd#
16ee
16dd#
16ff#
16ee
16dd
16cc
=41
[4b
16b]
16g
16b
16dd
16cc
16a
16cc
16ee
=42
8.dd
16b
16g
16g
16a
16b
16cc
16dd
16ee
16ff#
=43
16gg
16ff#
16gg
16ff#
16aa
16gg
16ff#
16gg
16ff#
16ee
16dd
16cc#
=44
16dd
16b
16dd
16b
4g
4r
=45
16cc
16a
16cc
16a
16f#
16a
16g#
16a
16a#
16b
16cc
16cc#
=46
16dd
16b
16dd
16b
4gg
16r
16bb
16ff#
16gg
=47
16dd#
16ee
16cc
16a
8.g
16g
16b
16a
16g
16a
=48
4a
4g
4r
=49
*>B
[4dd
16dd]
16cc#
16ee
16dd
16gg
16ff#
16ee
16dd
=50
8.cc#
16dd
4ee
4r
=51
[4ee
16ee]
16dd#
16ff#
16ee
16aa
16gg
16ff#
16ee
=52
8.dd
16ee
4ff#
4r
=53
[4ff#
16ff#]
16ee
16gg
16ff#
16bb
16aa
16gg
16ff#
=54
[4ee
16ee]
16dd#
16ff#
16ee
16aa
16gg
16ff#
16ee
=55
16ee
16dd
[8dd
16dd]
16a
16dd
16ff#
16ff#
16ee
16dd
16ee
=56
4ee
16dd
16dd#
16ee
16dd#
16ff#
16ee
16dd
16cc
=57
[4b
16b]
16g
16b
16dd
16cc
16a
16cc
16ee
=58
8.dd
16b
16g
16g
16a
16b
16cc
16dd
16ee
16ff#
=59
16gg
16ff#
16gg
16ff#
16aa
16gg
16ff#
16gg
16ff#
16ee
16dd
16cc#
=60
16dd
16b
16dd
16b
4g
4r
=61
16cc
16a
16cc
16a
16f#
16a
16g#
16a
16a#
16b
16cc
16cc#
=62
16dd
16b
16dd
16b
4gg
16r
16bb
16ff#
16gg
=63
16dd#
16ee
16cc
16a
8.g
16g
16b
16a
16g
16a
=64
4a
4g
4r
=65
*>C
[4b-
16b-]
16a
16cc
16b-
16b-
16a
16g
16f#
=66
8.g
16b-
4dd
4r
=67
[4dd
16dd]
16cc#
16ee-
16dd
16dd
16cc
16b-
16a
=68
8.b-
16dd
4gg
4r
=69
[4ff
16ff]
16aa
16ccc
16bb-
16aa
16gg
16ff
16ee-
=70
[4dd
16dd]
16gg
16bb-
16aa
16gg
16ff
16ee-
16dd
=71
16b
16cc
16ee-
16gg
8.b-
16b-
16dd
16cc
16b-
16cc
=72
4cc
16b-
16a
16cc
16b-
16dd
16cc
16ee-
16dd
=73
[4ff
16ff]
16aa-
16gg
16ff
16ee-
16dd
16cc
16b
=74
8.cc
16ee-
4gg
4r
=75
[4gg
16gg]
16ff#
16aa
16gg
16bb-
16cc#
16bb-
16cc#
=76
4cc#
4dd
4r
=77
[4ee-
16ee-]
16cc
16aa
16ff#
16ccc
16aa
16eee-
16ff#
=78
[4ddd
16ddd]
16aa
16bb-
16ff#
16gg
16cc#
16dd
16b-
=79
16b-
16a
16cc
16ee-
8.g
16g
16b-
16a
16g
16a
=80
4a
16g
16f#
16g
16g#
16a
16g#
16a
16a#
=81
2b
16dd
16cc
16b
16cc
=82
8.dd
16b
4g
4r
=83
4.gg
16aa
16gg
16ff#
16ee
16dd
16cc#
=84
8.dd
16b
4g
4r
=85
8.cc
16a
8f#
8a
8b
8cc
=86
8.dd
16b
4gg
4r
=87
16aa
16gg
16ff#
16gg
16ff#
16ee
16dd#
16ee
16dd
16cc
16b
16cc
=88
8.b
32cc
32b
8a
8dd
8cc#
8cc
=89
[4b
16b]
16g
16b
16dd
16cc
16a
16cc
16ee
=90
8.dd
16b
16g
16g
16a
16b
16cc
16dd
16ee
16ff#
=91
16gg
16ff#
16gg
16ff#
16aa
16gg
16ff#
16gg
16ff#
16ee
16dd
16cc#
=92
16dd
16b
16dd
16b
4g
4r
=93
16cc
16a
16cc
16a
16f#
16a
16g#
16a
16a#
16b
16cc
16cc#
=94
16dd
16b
16dd
16b
4gg
16r
16bb
16ff#
16gg
=95
16dd#
16ee
16cc
16a
8.g
16g
16b
16a
16g
16a
=96
16g
16f#
16a
16g
16b
16a
16cc
16b
16dd
16cc
16ee
16dd
=97
4.ff
16gg
16aa
16gg
16ff
16ee
16dd
=98
4dd#
4ee
16r
16gg
16ff#
16ee
=99
16dd
16b
16a
16ee
8.g
16g
16b
16a
16g
16a
=100
16g
16f#
16a
16g
16b
16a
16cc
16b
16dd
16cc
16ee
16dd
=101
4.ff
16gg
16aa
16gg
16ff
16ee
16dd
=102
4ee
4ff#
4gg
=103
4.g
32a
32g
32f#
32g
8b
8a
=104
16g
16d
16b
16b
16b
16g
16dd
16dd
16dd
16b
16a
16b
=105
16g
16d
16b
16b
16b
16g
16dd
16dd
16dd
16b
16a
16b
=106
8g
8r
8g
8r
4r
==
*-
